apps/spreadsheeteditor/main/resources/img/toolbar/2.5x/big/btn-normal-view.svg

<svg xmlns="http://www.w3.org/2000/svg" width="28" height="28" fill="none"><path fill="#000" d="M22 5a1 1 0 0 1 1 1v17a1 1 0 0 1-.898.995L22 24H5l-.103-.005a1 1 0 0 1-.892-.893L4 23V6a1 1 0 0 1 1-1h17ZM5 23h5v-5H5v5Zm0-6h5v-5H5v5Zm12-5v5h5v-5h-5Zm-6 5h5v-5h-5v5Zm-6-6h5V6H5v5Zm12 0h5V6h-5v5Zm-6 0h5V6h-5v5Zm5 12v-5h-5v5h5Zm6 0v-5h-5v5h5Z"/></svg>

<svg width="28" height="28" viewBox="0 0 28 28" fill="none" xmlns="http://www.w3.org/2000/svg">
<path opacity="0.5" fill-rule="evenodd" clip-rule="evenodd" d="M17 6H22V11L17 11V6ZM16 6H11L11 11H16V6ZM10 6H5V11L10 11L10 6ZM5 12V17H10V12L5 12ZM5 18L5 23H10V18H5ZM11 23H16V18L11 18V23ZM17 23H22V18H17V23ZM22 17V12L17 12V17H22ZM4 6C4 5.44771 4.44772 5 5 5H22C22.5523 5 23 5.44772 23 6V23C23 23.5523 22.5523 24 22 24H5C4.44771 24 4 23.5523 4 23V6ZM11 12V17L16 17V12H11Z" fill="black"/>
</svg>
